48/mimes/package-x-generic.svg

<?xml version="1.0" encoding="UTF-8" standalone="no"?>
<!-- Created with Inkscape (http://www.inkscape.org/) -->

<svg
   xmlns:dc="http://purl.org/dc/elements/1.1/"
   xmlns:cc="http://creativecommons.org/ns#"
   xmlns:rdf="http://www.w3.org/1999/02/22-rdf-syntax-ns#"
   xmlns:svg="http://www.w3.org/2000/svg"
   xmlns="http://www.w3.org/2000/svg"
   xmlns:sodipodi="http://sodipodi.sourceforge.net/DTD/sodipodi-0.dtd"
   xmlns:inkscape="http://www.inkscape.org/namespaces/inkscape"
   width="48"
   height="48"
   viewBox="0 0 12.7 12.7"
   version="1.1"
   id="svg2634"
   inkscape:version="0.92.4 5da689c313, 2019-01-14"
   sodipodi:docname="package-x-generic.svg">
  <title
     id="title3250">Boston Icons</title>
  <defs
     id="defs2628" />
  <sodipodi:namedview
     id="base"
     pagecolor="#ffffff"
     bordercolor="#00ffed"
     borderopacity="1"
     inkscape:pageopacity="1"
     inkscape:pageshadow="2"
     inkscape:zoom="11.2"
     inkscape:cx="27.30218"
     inkscape:cy="32.391803"
     inkscape:document-units="px"
     inkscape:current-layer="layer1"
     showgrid="false"
     showguides="false"
     inkscape:guide-bbox="true"
     fit-margin-top="0"
     fit-margin-left="0"
     fit-margin-right="0"
     fit-margin-bottom="0"
     inkscape:window-width="1920"
     inkscape:window-height="1016"
     inkscape:window-x="0"
     inkscape:window-y="27"
     inkscape:window-maximized="1"
     units="px">
    <inkscape:grid
       type="xygrid"
       id="grid3182"
       spacingx="0.26458333"
       spacingy="0.26458333"
       empspacing="4"
       originx="-82.550004"
       originy="-127.00001"
       dotted="false" />
    <sodipodi:guide
       position="-4.268358e-06,27.516666"
       orientation="1,0"
       id="guide3216"
       inkscape:locked="false" />
    <sodipodi:guide
       position="32.279157,-4.1479283e-06"
       orientation="0,1"
       id="guide3222"
       inkscape:locked="false" />
    <sodipodi:guide
       position="13.229163,0.52915746"
       orientation="0,1"
       id="guide3226"
       inkscape:locked="false" />
    <sodipodi:guide
       position="0.52916318,6.8791574"
       orientation="1,0"
       id="guide3228"
       inkscape:locked="false" />
    <sodipodi:guide
       position="1.0583298,6.8791574"
       orientation="1,0"
       id="guide3234"
       inkscape:locked="false" />
    <sodipodi:guide
       position="1.5874965,6.8791574"
       orientation="1,0"
       id="guide3236"
       inkscape:locked="false" />
    <sodipodi:guide
       position="6.3499965,7.9374908"
       orientation="1,0"
       id="guide3238"
       inkscape:locked="false" />
    <sodipodi:guide
       position="13.75833,1.0583241"
       orientation="0,1"
       id="guide3246"
       inkscape:locked="false" />
    <sodipodi:guide
       position="5.8208298,12.170824"
       orientation="0,1"
       id="guide864"
       inkscape:locked="false" />
    <sodipodi:guide
       position="6.8791632,11.641657"
       orientation="0,1"
       id="guide866"
       inkscape:locked="false" />
    <sodipodi:guide
       position="12.17083,8.4666574"
       orientation="1,0"
       id="guide868"
       inkscape:locked="false" />
    <sodipodi:guide
       position="11.641663,8.4666574"
       orientation="1,0"
       id="guide870"
       inkscape:locked="false" />
    <sodipodi:guide
       position="11.112496,8.4666574"
       orientation="1,0"
       id="guide872"
       inkscape:locked="false" />
    <sodipodi:guide
       position="0.79374495,11.112488"
       orientation="0,1"
       inkscape:locked="false"
       id="guide863" />
    <sodipodi:guide
       position="16.404161,8.9958216"
       orientation="0,1"
       id="guide976"
       inkscape:locked="false" />
  </sodipodi:namedview>
  <metadata
     id="metadata2631">
    <rdf:RDF>
      <cc:Work
         rdf:about="">
        <dc:format>image/svg+xml</dc:format>
        <dc:type
           rdf:resource="http://purl.org/dc/dcmitype/StillImage" />
        <dc:title>Boston Icons</dc:title>
        <cc:license
           rdf:resource="dribbble.com/chrisdiaz" />
        <dc:creator>
          <cc:Agent>
            <dc:title>Christian Díaz</dc:title>
          </cc:Agent>
        </dc:creator>
        <dc:date>2019</dc:date>
        <dc:publisher>
          <cc:Agent>
            <dc:title>Christian Díaz</dc:title>
          </cc:Agent>
        </dc:publisher>
        <dc:identifier>christiandiaz.design [at] gmail [dot] com</dc:identifier>
        <dc:subject>
          <rdf:Bag>
            <rdf:li>GNOME icon Theme</rdf:li>
          </rdf:Bag>
        </dc:subject>
        <dc:description>diazchris.deviantart.com | dribbble.com/chrisdiaz</dc:description>
      </cc:Work>
    </rdf:RDF>
  </metadata>
  <g
     inkscape:label="Capa 1"
     inkscape:groupmode="layer"
     id="layer1"
     transform="translate(-82.550003,-157.3)">
    <g
       id="g1083">
      <path
         sodipodi:nodetypes="ccccccc"
         inkscape:connector-curvature="0"
         id="path978"
         d="m 84.402081,158.88751 -0.793748,2.11667 -2e-6,8.46666 h 10.583335 v -8.46666 l -0.793752,-2.11667 z"
         style="fill:#cda467;fill-opacity:1;stroke:none;stroke-width:0.26458332px;stroke-linecap:butt;stroke-linejoin:miter;stroke-opacity:1" />
      <rect
         ry="5.0894191e-06"
         y="161.00418"
         x="83.872917"
         height="8.2020903"
         width="10.054179"
         id="rect980"
         style="opacity:1;fill:#f0c27e;fill-opacity:1;fill-rule:nonzero;stroke:none;stroke-width:0.52916664;stroke-linecap:square;stroke-linejoin:bevel;stroke-miterlimit:4;stroke-dasharray:none;stroke-dashoffset:35;stroke-opacity:1" />
      <path
         sodipodi:nodetypes="ccccc"
         inkscape:connector-curvature="0"
         id="path982"
         d="m 84.613751,159.1521 h 8.572499 l 0.582089,1.58749 h -9.736667 z"
         style="fill:#f0c27e;fill-opacity:1;stroke:none;stroke-width:0.26458332px;stroke-linecap:butt;stroke-linejoin:miter;stroke-opacity:1" />
      <path
         sodipodi:nodetypes="ccccc"
         inkscape:connector-curvature="0"
         id="path982-1"
         d="m 84.613749,159.1521 h 8.572499 l 0.582089,1.58749 H 84.03167 Z"
         style="opacity:0.2;fill:#ffffff;fill-opacity:1;stroke:none;stroke-width:0.26458332px;stroke-linecap:butt;stroke-linejoin:miter;stroke-opacity:1" />
      <rect
         ry="5.0894191e-06"
         y="158.88751"
         x="88.635414"
         height="2.1166692"
         width="0.52916676"
         id="rect984"
         style="opacity:0.85;fill:#cda467;fill-opacity:1;fill-rule:nonzero;stroke:none;stroke-width:0.52916664;stroke-linecap:square;stroke-linejoin:bevel;stroke-miterlimit:4;stroke-dasharray:none;stroke-dashoffset:35;stroke-opacity:1" />
      <path
         sodipodi:nodetypes="cccccccccccc"
         inkscape:connector-curvature="0"
         id="path1047"
         d="m 87.841665,159.1521 h 2.116666 v 4.7625 l -0.264583,-0.52917 -0.264583,0.52916 -0.264584,-0.52916 -0.264582,0.52916 -0.264584,-0.52916 -0.264584,0.52916 -0.264583,-0.52916 -0.264583,0.52917 z"
         style="opacity:0.4;fill:#ffffff;fill-opacity:1;stroke:none;stroke-width:0.26458332px;stroke-linecap:butt;stroke-linejoin:miter;stroke-opacity:1" />
      <path
         id="rect1049"
         transform="matrix(0.26458333,0,0,0.26458333,82.550003,157.3)"
         d="m 33,35 v 8 h 8 v -8 z m 1,1 h 6 v 6 h -6 z m 1,1 v 1 h 1 v -1 z m 1,1 v 2 h 1 1 v -1 h -1 v -1 z m 2,1 h 1 v -2 h -1 z m 0,1 v 1 h 1 v -1 z"
         style="opacity:1;fill:#cda467;fill-opacity:1;fill-rule:nonzero;stroke:none;stroke-width:1.99999988;stroke-linecap:square;stroke-linejoin:bevel;stroke-miterlimit:4;stroke-dasharray:none;stroke-dashoffset:35;stroke-opacity:1"
         inkscape:connector-curvature="0" />
      <rect
         ry="5.0894191e-06"
         y="168.41251"
         x="90.222916"
         height="0.26458332"
         width="0.52916664"
         id="rect1065"
         style="opacity:1;fill:#cda467;fill-opacity:1;fill-rule:nonzero;stroke:none;stroke-width:0.52916664;stroke-linecap:square;stroke-linejoin:bevel;stroke-miterlimit:4;stroke-dasharray:none;stroke-dashoffset:35;stroke-opacity:1" />
      <path
         id="rect1067"
         transform="matrix(0.26458333,0,0,0.26458333,82.550003,157.3)"
         d="m 24,39 1,2 v 1 h -1 v 1 h 3 v -1 h -1 v -1 l 1,-2 z"
         style="opacity:1;fill:#cda467;fill-opacity:1;fill-rule:nonzero;stroke:none;stroke-width:1.99999988;stroke-linecap:square;stroke-linejoin:bevel;stroke-miterlimit:4;stroke-dasharray:none;stroke-dashoffset:35;stroke-opacity:1"
         inkscape:connector-curvature="0" />
    </g>
  </g>
</svg>

<?xml version="1.0" encoding="UTF-8" standalone="no"?>
<!-- Created with Inkscape (http://www.inkscape.org/) -->

<svg
   xmlns:dc="http://purl.org/dc/elements/1.1/"
   xmlns:cc="http://creativecommons.org/ns#"
   xmlns:rdf="http://www.w3.org/1999/02/22-rdf-syntax-ns#"
   xmlns:svg="http://www.w3.org/2000/svg"
   xmlns="http://www.w3.org/2000/svg"
   xmlns:sodipodi="http://sodipodi.sourceforge.net/DTD/sodipodi-0.dtd"
   xmlns:inkscape="http://www.inkscape.org/namespaces/inkscape"
   width="48"
   height="48"
   viewBox="0 0 12.7 12.7"
   version="1.1"
   id="svg2634"
   inkscape:version="0.92.4 5da689c313, 2019-01-14"
   sodipodi:docname="package-x-generic.svg">
  <title
     id="title3250">Boston Icons</title>
  <defs
     id="defs2628" />
  <sodipodi:namedview
     id="base"
     pagecolor="#ffffff"
     bordercolor="#00ffed"
     borderopacity="1"
     inkscape:pageopacity="1"
     inkscape:pageshadow="2"
     inkscape:zoom="11.2"
     inkscape:cx="29.80218"
     inkscape:cy="16.588231"
     inkscape:document-units="px"
     inkscape:current-layer="layer1"
     showgrid="false"
     showguides="false"
     inkscape:guide-bbox="true"
     fit-margin-top="0"
     fit-margin-left="0"
     fit-margin-right="0"
     fit-margin-bottom="0"
     inkscape:window-width="1920"
     inkscape:window-height="1016"
     inkscape:window-x="0"
     inkscape:window-y="27"
     inkscape:window-maximized="1"
     units="px">
    <inkscape:grid
       type="xygrid"
       id="grid3182"
       spacingx="0.26458333"
       spacingy="0.26458333"
       empspacing="4"
       originx="-82.550004"
       originy="-127.00001"
       dotted="false" />
    <sodipodi:guide
       position="-4.268358e-06,27.516666"
       orientation="1,0"
       id="guide3216"
       inkscape:locked="false" />
    <sodipodi:guide
       position="32.279157,-4.1479283e-06"
       orientation="0,1"
       id="guide3222"
       inkscape:locked="false" />
    <sodipodi:guide
       position="13.229163,0.52915746"
       orientation="0,1"
       id="guide3226"
       inkscape:locked="false" />
    <sodipodi:guide
       position="0.52916318,6.8791574"
       orientation="1,0"
       id="guide3228"
       inkscape:locked="false" />
    <sodipodi:guide
       position="1.0583298,6.8791574"
       orientation="1,0"
       id="guide3234"
       inkscape:locked="false" />
    <sodipodi:guide
       position="1.5874965,6.8791574"
       orientation="1,0"
       id="guide3236"
       inkscape:locked="false" />
    <sodipodi:guide
       position="6.3499965,7.9374908"
       orientation="1,0"
       id="guide3238"
       inkscape:locked="false" />
    <sodipodi:guide
       position="13.75833,1.0583241"
       orientation="0,1"
       id="guide3246"
       inkscape:locked="false" />
    <sodipodi:guide
       position="5.8208298,12.170824"
       orientation="0,1"
       id="guide864"
       inkscape:locked="false" />
    <sodipodi:guide
       position="6.8791632,11.641657"
       orientation="0,1"
       id="guide866"
       inkscape:locked="false" />
    <sodipodi:guide
       position="12.17083,8.4666574"
       orientation="1,0"
       id="guide868"
       inkscape:locked="false" />
    <sodipodi:guide
       position="11.641663,8.4666574"
       orientation="1,0"
       id="guide870"
       inkscape:locked="false" />
    <sodipodi:guide
       position="11.112496,8.4666574"
       orientation="1,0"
       id="guide872"
       inkscape:locked="false" />
    <sodipodi:guide
       position="0.79374495,11.112488"
       orientation="0,1"
       inkscape:locked="false"
       id="guide863" />
    <sodipodi:guide
       position="16.404161,8.9958216"
       orientation="0,1"
       id="guide976"
       inkscape:locked="false" />
  </sodipodi:namedview>
  <metadata
     id="metadata2631">
    <rdf:RDF>
      <cc:Work
         rdf:about="">
        <dc:format>image/svg+xml</dc:format>
        <dc:type
           rdf:resource="http://purl.org/dc/dcmitype/StillImage" />
        <dc:title>Boston Icons</dc:title>
        <cc:license
           rdf:resource="dribbble.com/chrisdiaz" />
        <dc:creator>
          <cc:Agent>
            <dc:title>Christian Díaz</dc:title>
          </cc:Agent>
        </dc:creator>
        <dc:date>2019</dc:date>
        <dc:publisher>
          <cc:Agent>
            <dc:title>Christian Díaz</dc:title>
          </cc:Agent>
        </dc:publisher>
        <dc:identifier>christiandiaz.design [at] gmail [dot] com</dc:identifier>
        <dc:subject>
          <rdf:Bag>
            <rdf:li>GNOME icon Theme</rdf:li>
          </rdf:Bag>
        </dc:subject>
        <dc:description>diazchris.deviantart.com | dribbble.com/chrisdiaz</dc:description>
      </cc:Work>
    </rdf:RDF>
  </metadata>
  <g
     inkscape:label="Capa 1"
     inkscape:groupmode="layer"
     id="layer1"
     transform="translate(-82.550003,-157.3)">
    <g
       id="g1083">
      <path
         sodipodi:nodetypes="ccccccc"
         inkscape:connector-curvature="0"
         id="path978"
         d="m 84.402081,158.88751 -0.793748,2.11667 -2e-6,8.46666 h 10.583335 v -8.46666 l -0.793752,-2.11667 z"
         style="fill:#cda467;fill-opacity:1;stroke:none;stroke-width:0.26458332px;stroke-linecap:butt;stroke-linejoin:miter;stroke-opacity:1" />
      <rect
         ry="5.0894191e-06"
         y="161.00418"
         x="83.872917"
         height="8.2020903"
         width="10.054179"
         id="rect980"
         style="opacity:0.85;fill:#f0c27e;fill-opacity:1;fill-rule:nonzero;stroke:none;stroke-width:0.52916664;stroke-linecap:square;stroke-linejoin:bevel;stroke-miterlimit:4;stroke-dasharray:none;stroke-dashoffset:35;stroke-opacity:1" />
      <path
         sodipodi:nodetypes="ccccc"
         inkscape:connector-curvature="0"
         id="path982"
         d="m 84.613751,159.1521 h 8.572499 l 0.582089,1.58749 h -9.736667 z"
         style="fill:#f0c27e;fill-opacity:1;stroke:none;stroke-width:0.26458332px;stroke-linecap:butt;stroke-linejoin:miter;stroke-opacity:1" />
      <path
         sodipodi:nodetypes="ccccc"
         inkscape:connector-curvature="0"
         id="path982-1"
         d="m 84.613749,159.1521 h 8.572499 l 0.582089,1.58749 H 84.03167 Z"
         style="fill:#ffffff;fill-opacity:1;stroke:none;stroke-width:0.26458332px;stroke-linecap:butt;stroke-linejoin:miter;stroke-opacity:1;opacity:0.2" />
      <rect
         ry="5.0894191e-06"
         y="158.88751"
         x="88.635414"
         height="2.1166692"
         width="0.52916676"
         id="rect984"
         style="opacity:0.85;fill:#cda467;fill-opacity:1;fill-rule:nonzero;stroke:none;stroke-width:0.52916664;stroke-linecap:square;stroke-linejoin:bevel;stroke-miterlimit:4;stroke-dasharray:none;stroke-dashoffset:35;stroke-opacity:1" />
      <path
         sodipodi:nodetypes="cccccccccccc"
         inkscape:connector-curvature="0"
         id="path1047"
         d="m 87.841665,159.1521 h 2.116666 l 0,4.7625 -0.264583,-0.52917 -0.264583,0.52916 -0.264584,-0.52916 -0.264582,0.52916 -0.264584,-0.52916 -0.264584,0.52916 -0.264583,-0.52916 -0.264583,0.52917 z"
         style="fill:#ffffff;fill-opacity:1;stroke:none;stroke-width:0.26458332px;stroke-linecap:butt;stroke-linejoin:miter;stroke-opacity:1;opacity:0.4" />
      <path
         id="rect1049"
         transform="matrix(0.26458333,0,0,0.26458333,82.550003,157.3)"
         d="M 33 35 L 33 43 L 41 43 L 41 35 L 33 35 z M 34 36 L 40 36 L 40 42 L 34 42 L 34 36 z M 35 37 L 35 38 L 36 38 L 36 37 L 35 37 z M 36 38 L 36 40 L 37 40 L 38 40 L 38 39 L 37 39 L 37 38 L 36 38 z M 38 39 L 39 39 L 39 37 L 38 37 L 38 39 z M 38 40 L 38 41 L 39 41 L 39 40 L 38 40 z "
         style="opacity:1;fill:#cda467;fill-opacity:1;fill-rule:nonzero;stroke:none;stroke-width:1.99999988;stroke-linecap:square;stroke-linejoin:bevel;stroke-miterlimit:4;stroke-dasharray:none;stroke-dashoffset:35;stroke-opacity:1" />
      <rect
         ry="5.0894191e-06"
         y="168.41251"
         x="90.222916"
         height="0.26458332"
         width="0.52916664"
         id="rect1065"
         style="opacity:1;fill:#cda467;fill-opacity:1;fill-rule:nonzero;stroke:none;stroke-width:0.52916664;stroke-linecap:square;stroke-linejoin:bevel;stroke-miterlimit:4;stroke-dasharray:none;stroke-dashoffset:35;stroke-opacity:1" />
      <path
         id="rect1067"
         transform="matrix(0.26458333,0,0,0.26458333,82.550003,157.3)"
         d="M 24 39 L 25 41 L 25 42 L 24 42 L 24 43 L 27 43 L 27 42 L 26 42 L 26 41 L 27 39 L 24 39 z "
         style="opacity:1;fill:#cda467;fill-opacity:1;fill-rule:nonzero;stroke:none;stroke-width:1.99999988;stroke-linecap:square;stroke-linejoin:bevel;stroke-miterlimit:4;stroke-dasharray:none;stroke-dashoffset:35;stroke-opacity:1" />
    </g>
  </g>
</svg>
